X:1
T:Title
%%score { ( 1 3 ) | ( 2 4 ) }
L:1/8
Q:1/4=100
M:4/4
K:F
V:1 treble nm="Grand Piano"
V:3 treble 
V:2 bass 
V:4 bass 
V:1
 A4 _A3 =A | c6 c2 | d2 c2 A2 F2 | F4 E4 | [EG]4 [_E^F]3 [=EG] | [EB]6 [B,CE]2 | %6
w: C.~Austin~Miles * *||||||
 [A,CF]2 [A,CF]2 [A,FA]2 [=B,FG]2 | [CEG]6 z2 | A4 _A3 =A | c6 A2 | A2 A2 G2 F2 | F4 [Fd]4 | %12
w: ||||||
 [Fd]4 [Fe]2 [Fd]2 | [Fd]2 [Fc]2 [A,FA]2 [_A,=B,F]2 | [A,CF]4 [CEA]3 [B,EG] | [A,F]6 z2 | %16
w: ||||
 c4 d2 c2 | [FA]6 z2 | A4 B2 A2 | [A,F]6 z2 | [F,DF]3 [F,DF] [F,CE]2 [F,B,D]2 | %21
w: |||||
 [A,C]2[K:treble] [A,C]2 [A,CF]2 [CFA]2 | [CEG]4 G2- [FG]2 | [CEG]6 z2 | c4 d2 c2 | %25
w: ||||
 [FA]4- [CFA]2 C2 | A4 B2 A2 | [A,F]4- [A,CF]2 C2 | [F,DF]2 [Fd]2 [Fe]2 [Fd]2 | %29
w: ||||
[M:9/8] [Fd]2 [Fc]- [Fc] [A,FA]2 [_A,=B,F]3 |[M:4/4] [A,CF]4 [CEA]3 [B,EG] | [A,F]6 z2 |] %32
w: |||
V:2
 [F,CF]4 [F,=B,F]3 [F,CF] | [F,A,F]6 [F,A,F]2 | [F,B,F]2 [F,A,F]2 [F,CF]2 [F,A,C]2 | %3
 [C,A,C]4 [C,G,C]4 | [C,C]4 [C,C]3 [C,C] | [C,G,]6 C,2 | F,2 F,2 D,2 G,,2 | C,6 z2 | %8
 [F,CF]4 [F,=B,F]3 [F,CF] | [F,A,F]6 [F,CF]2 | [F,CF]2 [F,CF]2 [G,CE]2 [A,C_E]2 | [B,D]4 [B,,B,]4 | %12
 [B,,G,]4 [B,,G,]2 [B,,G,]2 | [C,A,]2 [C,A,]2 C,2 ^C,2 | C,4 C,3 C, | F,6 z2 | A4 B2 A2 | %17
 F,4 A,2 z2 | [F,C]4 D2 C2 | F,4 C,2 A,,2 | B,,3 B,, B,,2 B,,2 | F,2 F,2 F,2 F,2 | G,4 z2 D2 | %23
 C,6 z2 | A4 B2 A2 | F,4 A,2 z2 | [F,C]4 D2 C2 | F,4 C,2 A,,2 | B,,2 [B,,F,]2 [=B,,_A,]2 [B,,A,]2 | %29
[M:9/8] [C,A,]2 [C,A,]- [C,A,] C,2 ^C,3 |[M:4/4] C,4 C,3 C, | F,6 z2 |] %32
V:3
 x8 | x8 | x8 | x8 | x8 | x8 | x8 | x8 | x8 | x8 | x8 | x8 | x8 | x8 | x8 | x8 | x8 | C4 C2 C2 | %18
 x8 | C4 C2 C2 | x8 | x2[K:treble] x6 | z4 [=B,D]2 z2 | x8 | x8 | C4 z4 | x8 | C4 z4 | x8 | %29
[M:9/8] x9 |[M:4/4] x8 | x8 |] %32
V:4
 x8 | x8 | x8 | x8 | x8 | x8 | x8 | x8 | x8 | x8 | x8 | x8 | x8 | x8 | x8 | x8 | x8 | x8 | x8 | %19
 x8 | x8 | x8 | z4 G,,4 | x8 | x8 | x8 | x8 | x8 | x8 |[M:9/8] x9 |[M:4/4] x8 | x8 |] %32

